X:238
T:Off She Goes [English B music]
R:jig 32
Z:P J Headford.
M:6/8
L:1/8
Q:1/4=120
C:Trad arr. P J Headford
R:jig 32
O:England
K:D
F2A G2B|ABc d3|F2A G2B|AFD E2D|\
F2A G2B|ABc d2e|f2d g2f|edc d3:||
M:9/8
L:1/8
Q:1/4=140
|:f2a f2d e2f|g2b g2e f2a|f2d e2c A3|\
f2a f2d e2f|g2b g2e f2d|g2f edc d3||

